X: 3042
T: A New Italian Ground
%R: waltz
B: Henry Playford "Apollo's Banquet", London 1687 (5th Edition)
F: https://archive.org/details/apollosbanquetco01rugg
Z: 2017 John Chambers <jc:trillian.mit.edu>
M: 3/4
L: 1/8
K: G
% - - - - - - - - - -
|:\
G2 B2 c2 | A3 B G>F | (GF) (GB) (AG) | F4 F2 |\
G2 G2 (GD) | E3 F G2 | A2 G2 B2 | G6 ::
B2 c3 d | d3 c BA | B2 (cB) (AG) | A6 |\
d2 e2 d2 | c2 (BA) (GA) | A3 G A2 | B6 |
E2 F2 G2 | c2 B2 (cA) | B2 (cB) (AG) | F6 |\
G2 A2 B2 | G4 (BA) | F3 E F2 | HG6 |]
% - - - - - - - - - -
P: The Ground Bass.
K: G clef=bass middle=d
[| g6 | f6 | e6 | d6 | B6 | c6 | d6 | G6 |]\
   y6   y6   y6   y6   y6   y6   y6   y6
% - - - - - - - - - -
